X: 1
T: Nuala's Fiddle
M: 4/4
L: 1/8
R: reel
K: Dmaj
A3 B AFED | FA (3AAA FA (3AAA | BE (3EEE EFGA | BE (3EEE BAFG |
AD (3DDD ADBD | ADEF GABc | dF (3FFF AF (3FFF | EDEF D4 :|
fgaf gfed | (3cBA FA BAFA | fgaf gfed | BE (3EEE BE (3EEE |
f2 fe dABA | dABA BAFA | fgfe dBAF | ABAG FD (3DDD :|
